icons/money.svg

<svg width="24" height="24" viewBox="0 0 24 24" xmlns="http://www.w3.org/2000/svg">
    <path fill-rule="evenodd"
        d="M4 6C4 5.44772 4.44772 5 5 5H18.5C19.0523 5 19.5 5.44772 19.5 6V12.075C19.2577 12.0258 19.0068 12 18.75 12C17.3054 12 16.0516 12.8169 15.4252 14.0139C14.3321 14.1076 13.3729 14.6704 12.7497 15.5H5C4.44772 15.5 4 15.0523 4 14.5V6ZM14 17.75C14 17.0433 14.4189 16.4344 15.022 16.1582C15.1562 17.3988 15.8956 18.4579 16.9388 19.0344C16.6263 19.3237 16.2083 19.5 15.75 19.5C14.7835 19.5 14 18.7165 14 17.75ZM22.5 15.75C22.5 17.7118 20.9936 19.3217 19.0745 19.4862C18.4488 20.682 17.1959 21.5 15.75 21.5C13.6789 21.5 12 19.8211 12 17.75C12 17.666 12.0028 17.5826 12.0082 17.5H5C3.34315 17.5 2 16.1569 2 14.5V6C2 4.34315 3.34315 3 5 3H18.5C20.1569 3 21.5 4.34315 21.5 6V13.2005C22.1206 13.8695 22.5 14.7655 22.5 15.75ZM15.2448 8.26843H18.2562V6.26843H15.2448V8.26843ZM11.75 9C11.3358 9 11 9.33579 11 9.75C11 10.1642 11.3358 10.5 11.75 10.5C12.1642 10.5 12.5 10.1642 12.5 9.75C12.5 9.33579 12.1642 9 11.75 9ZM9 9.75C9 8.23122 10.2312 7 11.75 7C13.2688 7 14.5 8.23122 14.5 9.75C14.5 11.2688 13.2688 12.5 11.75 12.5C10.2312 12.5 9 11.2688 9 9.75ZM17 15.75C17 14.7835 17.7835 14 18.75 14C19.7165 14 20.5 14.7835 20.5 15.75C20.5 16.7165 19.7165 17.5 18.75 17.5C17.7835 17.5 17 16.7165 17 15.75ZM5.26418 14.2684H8.2562V12.2684H5.26418V14.2684Z" />
</svg>

<svg xmlns="http://www.w3.org/2000/svg" width="24" height="24" viewBox="0 0 24 24">
    <path
        d="M4 6c0-.552.448-1 1-1h13.5c.552 0 1 .448 1 1v6.075c-.242-.05-.493-.075-.75-.075-1.445 0-2.698.817-3.325 2.014-1.093.094-2.052.656-2.675 1.486H5c-.552 0-1-.448-1-1V6zm10 11.75c0-.707.419-1.316 1.022-1.592.134 1.24.874 2.3 1.917 2.876-.313.29-.73.466-1.189.466-.966 0-1.75-.784-1.75-1.75zm8.5-2c0 1.962-1.506 3.572-3.425 3.736-.626 1.196-1.88 2.014-3.325 2.014-2.071 0-3.75-1.679-3.75-3.75 0-.084.003-.167.008-.25H5c-1.657 0-3-1.343-3-3V6c0-1.657 1.343-3 3-3h13.5c1.657 0 3 1.343 3 3v7.2c.62.67 1 1.566 1 2.55zm-7.255-7.482h3.011v-2h-3.011v2zM11.75 9c-.414 0-.75.336-.75.75s.336.75.75.75.75-.336.75-.75-.336-.75-.75-.75zM9 9.75C9 8.231 10.231 7 11.75 7s2.75 1.231 2.75 2.75-1.231 2.75-2.75 2.75S9 11.269 9 9.75zm8 6c0-.966.784-1.75 1.75-1.75s1.75.784 1.75 1.75-.784 1.75-1.75 1.75S17 16.716 17 15.75zM5.264 14.268h2.992v-2H5.264v2z" />
</svg>
